Simply-Cyan-Circles/scalable/apps/brave-browser-dev.svg

<svg xmlns="http://www.w3.org/2000/svg" width="48" height="48" viewBox="0 0 12.7 12.7"><path d="M6.34.07a6.29 6.29 0 0 0-6.29 6.3 6.29 6.29 0 0 0 6.3 6.28 6.29 6.29 0 0 0 6.28-6.29A6.29 6.29 0 0 0 6.34.07zm-.01.94a5.4 5.4 0 0 1 5.4 5.4 5.4 5.4 0 0 1-5.4 5.41 5.4 5.4 0 0 1-5.41-5.4A5.4 5.4 0 0 1 6.32 1z" fill="#5beedc"/><path d="M6.33 1.54a4.88 4.88 0 0 0-4.88 4.88 4.88 4.88 0 0 0 4.88 4.87 4.88 4.88 0 0 0 4.87-4.87 4.88 4.88 0 0 0-4.87-4.88zm-2 2c.36.04.62.18.98.23l.27-.06c.5-.16.67-.17.77-.17.1 0 .26.01.77.17l.27.06c.36-.05.64-.18.99-.23.06 0 .85 1.05 1.03 1.39.08.14.1.28.07.38-.03.1-.17.2-.74.73-.27.24-.49.46-.5.47-.02.07 0 .18.08.37.1.25.12.35.07.5a.89.89 0 0 1-.29.41c-.14.12-.23.25-.32.24-.1-.02-.72-.42-.82-.5-.24-.2-.48-.44-.5-.49 0-.02.01-.07.03-.1.02-.03.2-.2.4-.37.34-.3.4-.37.4-.45l-.13-.38a1.3 1.3 0 0 1-.14-.43c0-.12.05-.2.14-.27l.62-.26a233.29 233.29 0 0 0 .63-.26 2.6 2.6 0 0 0-.37-.05c-.42-.04-.41-.04-.87.13-.3.1-.34.12-.36.17a.24.24 0 0 0-.03.09l.13.6c.13.54.13.58.1.6a2 2 0 0 1-.6.17 2.1 2.1 0 0 1-.72-.16c-.04-.04-.03-.06.1-.6l.13-.61a.24.24 0 0 0-.03-.1c-.02-.04-.07-.06-.4-.18l-.37-.13h-.2c-.26.01-.63.05-.63.08 0 0 .26.12.6.25.33.12.63.24.66.27a.3.3 0 0 1 .13.26c0 .08-.03.17-.14.44-.2.46-.21.4.28.83.21.18.4.35.4.38.04.08 0 .15-.25.36-.28.26-.34.3-.71.48-.17.08-.34.23-.37.23-.08 0-.13-.11-.27-.22a.91.91 0 0 1-.3-.43c-.06-.16-.05-.23.06-.5.08-.19.1-.3.07-.37 0-.01-.21-.22-.46-.45-.74-.68-.81-.71-.78-.9.02-.15.09-.2.33-.56.21-.31.72-1.02.78-1.06zM6.34 7.6c.09 0 .17.03.33.1.3.12.92.43.95.47.03.05 0 .09-.2.23-.34.25-.72.5-.72.5-.37.33-.35.33-.7.02l-.81-.56c-.14-.1-.16-.14-.11-.2.05-.04.67-.35.94-.47.15-.06.23-.1.32-.1z" fill="teal" opacity=".75"/></svg>

<?xml version="1.0" encoding="UTF-8" standalone="no"?>
<svg
   xmlns:dc="http://purl.org/dc/elements/1.1/"
   xmlns:cc="http://creativecommons.org/ns#"
   xmlns:rdf="http://www.w3.org/1999/02/22-rdf-syntax-ns#"
   xmlns:svg="http://www.w3.org/2000/svg"
   xmlns="http://www.w3.org/2000/svg"
   xmlns:sodipodi="http://sodipodi.sourceforge.net/DTD/sodipodi-0.dtd"
   xmlns:inkscape="http://www.inkscape.org/namespaces/inkscape"
   width="48"
   height="48"
   viewBox="0 0 12.7 12.7"
   version="1.1"
   id="svg6"
   sodipodi:docname="brave-browser-dev.svg"
   inkscape:version="0.92.4 (5da689c313, 2019-01-14)">
  <metadata
     id="metadata12">
    <rdf:RDF>
      <cc:Work
         rdf:about="">
        <dc:format>image/svg+xml</dc:format>
        <dc:type
           rdf:resource="http://purl.org/dc/dcmitype/StillImage" />
        <dc:title></dc:title>
      </cc:Work>
    </rdf:RDF>
  </metadata>
  <defs
     id="defs10" />
  <sodipodi:namedview
     pagecolor="#ffffff"
     bordercolor="#666666"
     borderopacity="1"
     objecttolerance="10"
     gridtolerance="10"
     guidetolerance="10"
     inkscape:pageopacity="0"
     inkscape:pageshadow="2"
     inkscape:window-width="1087"
     inkscape:window-height="480"
     id="namedview8"
     showgrid="false"
     inkscape:zoom="4.9166667"
     inkscape:cx="2.1355932"
     inkscape:cy="24"
     inkscape:window-x="0"
     inkscape:window-y="25"
     inkscape:window-maximized="0"
     inkscape:current-layer="svg6" />
  <path
     d="M 6.34,0.07 A 6.29,6.29 0 0 0 0.05,6.37 6.29,6.29 0 0 0 6.35,12.65 6.29,6.29 0 0 0 12.63,6.36 6.29,6.29 0 0 0 6.34,0.07 Z M 6.33,1.01 a 5.4,5.4 0 0 1 5.4,5.4 5.4,5.4 0 0 1 -5.4,5.41 A 5.4,5.4 0 0 1 0.92,6.42 5.4,5.4 0 0 1 6.32,1 Z"
     id="path2"
     inkscape:connector-curvature="0"
     style="fill:#5beedc" />
  <path
     d="M 6.33,1.54 A 4.88,4.88 0 0 0 1.45,6.42 4.88,4.88 0 0 0 6.33,11.29 4.88,4.88 0 0 0 11.2,6.42 4.88,4.88 0 0 0 6.33,1.54 Z m -2,2 C 4.69,3.58 4.95,3.72 5.31,3.77 L 5.58,3.71 c 0.5,-0.16 0.67,-0.17 0.77,-0.17 0.1,0 0.26,0.01 0.77,0.17 L 7.39,3.77 C 7.75,3.72 8.03,3.59 8.38,3.54 c 0.06,0 0.85,1.05 1.03,1.39 0.08,0.14 0.1,0.28 0.07,0.38 -0.03,0.1 -0.17,0.2 -0.74,0.73 -0.27,0.24 -0.49,0.46 -0.5,0.47 -0.02,0.07 0,0.18 0.08,0.37 0.1,0.25 0.12,0.35 0.07,0.5 A 0.89,0.89 0 0 1 8.1,7.79 C 7.96,7.91 7.87,8.04 7.78,8.03 7.68,8.01 7.06,7.61 6.96,7.53 6.72,7.33 6.48,7.09 6.46,7.04 6.46,7.02 6.47,6.97 6.49,6.94 6.51,6.91 6.69,6.74 6.89,6.57 7.23,6.27 7.29,6.2 7.29,6.12 L 7.16,5.74 A 1.3,1.3 0 0 1 7.02,5.31 c 0,-0.12 0.05,-0.2 0.14,-0.27 L 7.78,4.78 A 233.29,233.29 0 0 0 8.41,4.52 2.6,2.6 0 0 0 8.04,4.47 C 7.62,4.43 7.63,4.43 7.17,4.6 6.87,4.7 6.83,4.72 6.81,4.77 A 0.24,0.24 0 0 0 6.78,4.86 l 0.13,0.6 C 7.04,6 7.04,6.04 7.01,6.06 A 2,2 0 0 1 6.41,6.23 2.1,2.1 0 0 1 5.69,6.07 C 5.65,6.03 5.66,6.01 5.79,5.47 L 5.92,4.86 A 0.24,0.24 0 0 0 5.89,4.76 C 5.87,4.72 5.82,4.7 5.49,4.58 L 5.12,4.45 H 4.92 C 4.66,4.46 4.29,4.5 4.29,4.53 c 0,0 0.26,0.12 0.6,0.25 0.33,0.12 0.63,0.24 0.66,0.27 a 0.3,0.3 0 0 1 0.13,0.26 c 0,0.08 -0.03,0.17 -0.14,0.44 -0.2,0.46 -0.21,0.4 0.28,0.83 0.21,0.18 0.4,0.35 0.4,0.38 0.04,0.08 0,0.15 -0.25,0.36 C 5.69,7.58 5.63,7.62 5.26,7.8 5.09,7.88 4.92,8.03 4.89,8.03 4.81,8.03 4.76,7.92 4.62,7.81 A 0.91,0.91 0 0 1 4.32,7.38 C 4.26,7.22 4.27,7.15 4.38,6.88 4.46,6.69 4.48,6.58 4.45,6.51 4.45,6.5 4.24,6.29 3.99,6.06 3.25,5.38 3.18,5.35 3.21,5.16 3.23,5.01 3.3,4.96 3.54,4.6 3.75,4.29 4.26,3.58 4.32,3.54 Z M 6.34,7.6 c 0.09,0 0.17,0.03 0.33,0.1 0.3,0.12 0.92,0.43 0.95,0.47 0.03,0.05 0,0.09 -0.2,0.23 C 7.08,8.65 6.7,8.9 6.7,8.9 6.33,9.23 6.35,9.23 6,8.92 L 5.19,8.36 C 5.05,8.26 5.03,8.22 5.08,8.16 5.13,8.12 5.75,7.81 6.02,7.69 6.17,7.63 6.25,7.59 6.34,7.59 Z"
     id="path4"
     inkscape:connector-curvature="0"
     style="opacity:0.75;fill:#008080" />
</svg>
